src/apps/scalable/com.github.louis77.tuner.svg

<svg xmlns="http://www.w3.org/2000/svg" width="64" height="64" enable-background="new 0 0 1024 1024" image-rendering="optimizeSpeed"><defs><linearGradient id="c" x1="64.734" x2="64.734" y1="79" y2="47" gradientTransform="matrix(.52685 0 0 .49844 -2.129 -8.427)" gradientUnits="userSpaceOnUse"><stop offset="0" stop-color="#DE3E80"/><stop offset="1" stop-color="#910E38"/></linearGradient><linearGradient id="d" x1="64" x2="64" y1="76" y2="50" gradientTransform="matrix(.48884 0 0 .53846 .69 -10.923)" gradientUnits="userSpaceOnUse"><stop offset=".687" stop-color="#FAFAFA"/><stop offset="1" stop-color="#ABACAE"/></linearGradient><linearGradient id="g" x1="99.796" x2="99.796" y1="94" y2="87" gradientTransform="translate(.835 -5.444) scale(.48696)" gradientUnits="userSpaceOnUse"><stop offset="0" stop-color="#DE3E80"/><stop offset="1" stop-color="#910E38"/></linearGradient><linearGradient id="h" x1="100.44" x2="100.44" y1="102" y2="95" gradientTransform="translate(.835 -5.444) scale(.48696)" gradientUnits="userSpaceOnUse"><stop offset="0" stop-color="#DE3E80"/><stop offset="1" stop-color="#910E38"/></linearGradient><linearGradient id="i" x1="99.796" x2="99.796" y1="110" y2="103" gradientTransform="translate(.835 -5.444) scale(.48696)" gradientUnits="userSpaceOnUse"><stop offset="0" stop-color="#DE3E80"/><stop offset="1" stop-color="#910E38"/></linearGradient><linearGradient id="j" x1="171.39" x2="171.39" y1="94" y2="87" gradientTransform="matrix(-.48696 0 0 .48696 98.028 -5.444)" gradientUnits="userSpaceOnUse"><stop offset="0" stop-color="#DE3E80"/><stop offset="1" stop-color="#910E38"/></linearGradient><linearGradient id="k" x1="172.04" x2="172.04" y1="102" y2="95" gradientTransform="matrix(-.48696 0 0 .48696 98.028 -5.444)" gradientUnits="userSpaceOnUse"><stop offset="0" stop-color="#DE3E80"/><stop offset="1" stop-color="#910E38"/></linearGradient><linearGradient id="l" x1="171.39" x2="171.39" y1="110" y2="103" gradientTransform="matrix(-.48696 0 0 .48696 98.028 -5.444)" gradientUnits="userSpaceOnUse"><stop offset="0" stop-color="#DE3E80"/><stop offset="1" stop-color="#910E38"/></linearGradient><linearGradient id="b" x1="-39.605" x2="-39.605" y1="58.247" y2="6.988" gradientTransform="translate(70.543 .42)" gradientUnits="userSpaceOnUse"><stop offset="0" stop-color="#90193A"/><stop offset="1" stop-color="#DD3F80"/></linearGradient><radialGradient id="e" cx="65.029" cy="109.39" r="28.579" gradientTransform="matrix(.48895 0 0 .36863 .87 7.388)" gradientUnits="userSpaceOnUse"><stop offset="0" stop-color="#FAFAFA"/><stop offset="1" stop-color="#D4D4D4"/></radialGradient><radialGradient id="f" cx="64.311" cy="105.08" r="25.112" gradientTransform="matrix(.47887 0 0 .27834 1.517 16.293)" gradientUnits="userSpaceOnUse"><stop offset="0" stop-color="#7E8087"/><stop offset="1" stop-color="#FAFAFA"/></radialGradient><filter id="a" width="1.078" height="1.078" x="-.039" y="-.039" color-interpolation-filters="sRGB"><feGaussianBlur stdDeviation=".972"/></filter></defs><circle cx="32" cy="32" r="30" filter="url(#a)" opacity=".15" style="isolation:isolate;paint-order:stroke fill markers"/><circle cx="32" cy="32" r="30" fill="url(#b)" style="isolation:isolate;paint-order:stroke fill markers"/><path fill="url(#c)" d="M8 26.514v-7.078C8 16.994 9.918 15 12.268 15h39.465C54.083 15 56 16.994 56 19.436v7.128C56 29.006 54.082 31 51.733 31H12.268C9.918 30.95 8 28.956 8 26.514z" class="st6"/><path fill="url(#d)" d="M52.067 30H11.884C10.32 30 9 28.6 9 26.823v-7.646C9 17.454 10.27 16 11.884 16h40.232C53.68 16 55 17.4 55 19.177v7.7C54.951 28.6 53.68 30 52.067 30z" class="st7"/><g fill="none" stroke-miterlimit="10"><path stroke="#abacae" stroke-width=".87" d="M12.035 18.777v8.279m3.408-6.818v5.357m2.922-5.357v5.357m3.409-6.818v8.279m3.409-6.818v5.357m3.408-5.357v5.357M32 18.777v8.279m3.409-6.818v5.357m3.408-5.357v5.357m3.409-6.818v8.279m9.739-8.279v8.279m-6.33-6.818v5.357m2.922-5.357v5.357" class="st8"/><path stroke="#de3e80" stroke-width="1.067" d="M27.13 16.83v12.66" class="st9"/></g><circle cx="32.243" cy="42.522" r="8.522" fill="url(#e)" class="st10"/><circle cx="32.243" cy="42.522" r="6.817" fill="#273445" stroke="#de3e80" stroke-linecap="round" stroke-linejoin="round" stroke-width=".445" class="st11"/><circle cx="32.243" cy="42.522" r="5.843" fill="url(#f)" stroke="#abacae" stroke-linecap="round" stroke-linejoin="round" stroke-width=".319" class="st12"/><path fill="#d3d3d3" stroke="#ababad" stroke-width=".13" d="M32.243 39.746c-.146 0-.243-.097-.243-.243v-2.29c0-.145.097-.243.243-.243s.243.098.243.244v2.289c0 .146-.097.243-.243.243z" class="st13"/><g stroke-width=".487"><path fill="url(#g)" d="M44.466 40.33a1.687 1.687 0 0 1-1.656-1.996c.146-.828.926-1.413 1.753-1.413h9.788c.828 0 1.607.585 1.753 1.413a1.687 1.687 0 0 1-1.655 1.996z" class="st14"/><path fill="#101520" d="M54.643 39.843H44.417c-.682 0-1.217-.536-1.217-1.217s.535-1.218 1.217-1.218h10.226c.682 0 1.217.536 1.217 1.218s-.535 1.217-1.217 1.217z" class="st15"/><path fill="url(#h)" d="M45.05 44.226a1.687 1.687 0 0 1-1.656-1.996c.146-.828.926-1.413 1.753-1.413h9.155c.828 0 1.607.585 1.753 1.413a1.687 1.687 0 0 1-1.656 1.996z" class="st16"/><path fill="#101520" d="M54.643 43.739h-9.74c-.68 0-1.216-.536-1.216-1.217s.535-1.218 1.217-1.218h9.739c.682 0 1.217.536 1.217 1.218s-.535 1.217-1.217 1.217z" class="st15"/><path fill="url(#i)" d="M44.466 48.122a1.687 1.687 0 0 1-1.656-1.996c.146-.828.926-1.413 1.753-1.413h9.788c.828 0 1.607.585 1.753 1.413a1.687 1.687 0 0 1-1.655 1.996z" class="st17"/><path fill="#101520" d="M54.643 47.635H44.417a1.206 1.206 0 0 1-1.217-1.217c0-.682.535-1.218 1.217-1.218h10.226c.682 0 1.217.536 1.217 1.218 0 .681-.535 1.217-1.217 1.217z" class="st15"/><path fill="url(#j)" d="M19.534 40.33c1.023 0 1.85-.925 1.656-1.996-.098-.828-.877-1.413-1.753-1.413h-9.74c-.827 0-1.607.585-1.753 1.413-.243 1.07.585 1.996 1.656 1.996z" class="st18"/><path fill="#101520" d="M9.357 39.843h10.226c.681 0 1.217-.536 1.217-1.217s-.536-1.218-1.217-1.218H9.357c-.682 0-1.218.536-1.218 1.218s.536 1.217 1.218 1.217z" class="st15"/><path fill="url(#k)" d="M18.95 44.226c1.023 0 1.85-.925 1.656-1.996-.146-.828-.926-1.413-1.753-1.413H9.649c-.828 0-1.607.585-1.753 1.413a1.687 1.687 0 0 0 1.656 1.996z" class="st19"/><path fill="#101520" d="M9.357 43.739h9.739c.681 0 1.217-.536 1.217-1.217s-.536-1.218-1.217-1.218h-9.74c-.681 0-1.217.536-1.217 1.218s.536 1.217 1.218 1.217z" class="st15"/><path fill="url(#l)" d="M19.534 48.122c1.023 0 1.85-.925 1.656-1.996-.146-.828-.926-1.413-1.753-1.413h-9.74c-.827 0-1.607.585-1.753 1.413A1.687 1.687 0 0 0 9.6 48.122z" class="st20"/><path fill="#101520" d="M9.357 47.635h10.226c.681 0 1.217-.536 1.217-1.217 0-.682-.536-1.218-1.217-1.218H9.357c-.682 0-1.218.536-1.218 1.218 0 .681.536 1.217 1.218 1.217z" class="st15"/></g></svg>

<svg width="64" height="64" enable-background="new 0 0 1024 1024" image-rendering="optimizeSpeed" xmlns="http://www.w3.org/2000/svg"><defs><linearGradient id="c" x1="64.734" x2="64.734" y1="79" y2="47" gradientTransform="matrix(.52685 0 0 .49844 -2.129 -8.427)" gradientUnits="userSpaceOnUse"><stop stop-color="#DE3E80" offset="0"/><stop stop-color="#910E38" offset="1"/></linearGradient><linearGradient id="d" x1="64" x2="64" y1="76" y2="50" gradientTransform="matrix(.48884 0 0 .53846 .69 -10.923)" gradientUnits="userSpaceOnUse"><stop stop-color="#FAFAFA" offset=".687"/><stop stop-color="#ABACAE" offset="1"/></linearGradient><linearGradient id="g" x1="99.796" x2="99.796" y1="94" y2="87" gradientTransform="translate(.835 -5.444) scale(.48696)" gradientUnits="userSpaceOnUse"><stop stop-color="#DE3E80" offset="0"/><stop stop-color="#910E38" offset="1"/></linearGradient><linearGradient id="h" x1="100.44" x2="100.44" y1="102" y2="95" gradientTransform="translate(.835 -5.444) scale(.48696)" gradientUnits="userSpaceOnUse"><stop stop-color="#DE3E80" offset="0"/><stop stop-color="#910E38" offset="1"/></linearGradient><linearGradient id="i" x1="99.796" x2="99.796" y1="110" y2="103" gradientTransform="translate(.835 -5.444) scale(.48696)" gradientUnits="userSpaceOnUse"><stop stop-color="#DE3E80" offset="0"/><stop stop-color="#910E38" offset="1"/></linearGradient><linearGradient id="j" x1="171.39" x2="171.39" y1="94" y2="87" gradientTransform="matrix(-.48696 0 0 .48696 98.028 -5.444)" gradientUnits="userSpaceOnUse"><stop stop-color="#DE3E80" offset="0"/><stop stop-color="#910E38" offset="1"/></linearGradient><linearGradient id="k" x1="172.04" x2="172.04" y1="102" y2="95" gradientTransform="matrix(-.48696 0 0 .48696 98.028 -5.444)" gradientUnits="userSpaceOnUse"><stop stop-color="#DE3E80" offset="0"/><stop stop-color="#910E38" offset="1"/></linearGradient><linearGradient id="l" x1="171.39" x2="171.39" y1="110" y2="103" gradientTransform="matrix(-.48696 0 0 .48696 98.028 -5.444)" gradientUnits="userSpaceOnUse"><stop stop-color="#DE3E80" offset="0"/><stop stop-color="#910E38" offset="1"/></linearGradient><linearGradient id="b" x1="-39.605" x2="-39.605" y1="58.247" y2="6.988" gradientTransform="translate(70.543 .42)" gradientUnits="userSpaceOnUse"><stop stop-color="#90193A" offset="0"/><stop stop-color="#DD3F80" offset="1"/></linearGradient><radialGradient id="e" cx="65.029" cy="109.39" r="28.579" gradientTransform="matrix(.48895 0 0 .36863 .87 7.388)" gradientUnits="userSpaceOnUse"><stop stop-color="#FAFAFA" offset="0"/><stop stop-color="#D4D4D4" offset="1"/></radialGradient><radialGradient id="f" cx="64.311" cy="105.08" r="25.112" gradientTransform="matrix(.47887 0 0 .27834 1.517 16.293)" gradientUnits="userSpaceOnUse"><stop stop-color="#7E8087" offset="0"/><stop stop-color="#FAFAFA" offset="1"/></radialGradient><filter id="a" x="-.039" y="-.039" width="1.078" height="1.078" color-interpolation-filters="sRGB"><feGaussianBlur stdDeviation=".972"/></filter></defs><circle cx="32" cy="32" r="30" filter="url(#a)" opacity=".15" style="isolation:isolate;paint-order:stroke fill markers"/><circle cx="32" cy="32" r="30" fill="url(#b)" style="isolation:isolate;paint-order:stroke fill markers"/><path class="st6" d="M8 26.514v-7.078C8 16.994 9.918 15 12.268 15h39.465C54.083 15 56 16.994 56 19.436v7.128C56 29.006 54.082 31 51.733 31H12.268C9.918 30.95 8 28.956 8 26.514z" fill="url(#c)"/><path class="st7" d="M52.067 30H11.884C10.32 30 9 28.6 9 26.823v-7.646C9 17.454 10.27 16 11.884 16h40.232C53.68 16 55 17.4 55 19.177v7.7C54.951 28.6 53.68 30 52.067 30z" fill="url(#d)"/><g fill="none" stroke-miterlimit="10"><g stroke="#abacae" stroke-width=".87"><path class="st8" d="M12.035 18.777v8.279M15.443 20.238v5.357M18.365 20.238v5.357M21.774 18.777v8.279M25.183 20.238v5.357M28.591 20.238v5.357M32 18.777v8.279M35.409 20.238v5.357M38.817 20.238v5.357M42.226 18.777v8.279M51.965 18.777v8.279M45.635 20.238v5.357M48.557 20.238v5.357"/></g><path class="st9" stroke="#de3e80" stroke-width="1.067" d="M27.13 16.83v12.66"/></g><circle class="st10" cx="32.243" cy="42.522" r="8.522" fill="url(#e)"/><circle class="st11" cx="32.243" cy="42.522" r="6.817" fill="#273445" stroke="#de3e80" stroke-linecap="round" stroke-linejoin="round" stroke-width=".445"/><circle class="st12" cx="32.243" cy="42.522" r="5.843" fill="url(#f)" stroke="#abacae" stroke-linecap="round" stroke-linejoin="round" stroke-width=".319"/><path class="st13" d="M32.243 39.746c-.146 0-.243-.097-.243-.243v-2.29c0-.145.097-.243.243-.243s.243.098.243.244v2.289c0 .146-.097.243-.243.243z" fill="#d3d3d3" stroke="#ababad" stroke-width=".13"/><g stroke-width=".487"><path class="st14" d="M44.466 40.33a1.687 1.687 0 0 1-1.656-1.996c.146-.828.926-1.413 1.753-1.413h9.788c.828 0 1.607.585 1.753 1.413a1.687 1.687 0 0 1-1.655 1.996z" fill="url(#g)"/><path class="st15" d="M54.643 39.843H44.417c-.682 0-1.217-.536-1.217-1.217s.535-1.218 1.217-1.218h10.226c.682 0 1.217.536 1.217 1.218s-.535 1.217-1.217 1.217z" fill="#101520"/><path class="st16" d="M45.05 44.226a1.687 1.687 0 0 1-1.656-1.996c.146-.828.926-1.413 1.753-1.413h9.155c.828 0 1.607.585 1.753 1.413a1.687 1.687 0 0 1-1.656 1.996z" fill="url(#h)"/><path class="st15" d="M54.643 43.739h-9.74c-.68 0-1.216-.536-1.216-1.217s.535-1.218 1.217-1.218h9.739c.682 0 1.217.536 1.217 1.218s-.535 1.217-1.217 1.217z" fill="#101520"/><path class="st17" d="M44.466 48.122a1.687 1.687 0 0 1-1.656-1.996c.146-.828.926-1.413 1.753-1.413h9.788c.828 0 1.607.585 1.753 1.413a1.687 1.687 0 0 1-1.655 1.996z" fill="url(#i)"/><path class="st15" d="M54.643 47.635H44.417a1.206 1.206 0 0 1-1.217-1.217c0-.682.535-1.218 1.217-1.218h10.226c.682 0 1.217.536 1.217 1.218 0 .681-.535 1.217-1.217 1.217z" fill="#101520"/><path class="st18" d="M19.534 40.33c1.023 0 1.85-.925 1.656-1.996-.098-.828-.877-1.413-1.753-1.413h-9.74c-.827 0-1.607.585-1.753 1.413-.243 1.07.585 1.996 1.656 1.996z" fill="url(#j)"/><path class="st15" d="M9.357 39.843h10.226c.681 0 1.217-.536 1.217-1.217s-.536-1.218-1.217-1.218H9.357c-.682 0-1.218.536-1.218 1.218s.536 1.217 1.218 1.217z" fill="#101520"/><path class="st19" d="M18.95 44.226c1.023 0 1.85-.925 1.656-1.996-.146-.828-.926-1.413-1.753-1.413H9.649c-.828 0-1.607.585-1.753 1.413a1.687 1.687 0 0 0 1.656 1.996z" fill="url(#k)"/><path class="st15" d="M9.357 43.739h9.739c.681 0 1.217-.536 1.217-1.217s-.536-1.218-1.217-1.218h-9.74c-.681 0-1.217.536-1.217 1.218s.536 1.217 1.218 1.217z" fill="#101520"/><path class="st20" d="M19.534 48.122c1.023 0 1.85-.925 1.656-1.996-.146-.828-.926-1.413-1.753-1.413h-9.74c-.827 0-1.607.585-1.753 1.413A1.687 1.687 0 0 0 9.6 48.122z" fill="url(#l)"/><path class="st15" d="M9.357 47.635h10.226c.681 0 1.217-.536 1.217-1.217 0-.682-.536-1.218-1.217-1.218H9.357c-.682 0-1.218.536-1.218 1.218 0 .681.536 1.217 1.218 1.217z" fill="#101520"/></g></svg>
